X:9
T:Lass O' Killiecrankie
T:Mary Panton's
M:6/8
K:Am
e|"Am"e2A A2e|e2A ABc|"G"d2B G2B|d2e dcB|"Am"A2B c2d|e2c A2e|"Em"e2d\
c2B|"Am"(A3 A2):|
z|"Am"aaa a2g|e2ee3|"G"ggg g2e|d2c BAG|"Am"A2B c2d|e2c A2e|"Em"e2d\
c2B|"Am"(A3 A2):|

